icons/modern/moon-cake.svg

<svg width="32" height="32" viewBox="0 0 32 32" fill="none" xmlns="http://www.w3.org/2000/svg">
<path d="M27.6076 18.1677C27.6076 17.0977 28.0476 15.9977 27.7776 15.0077C27.5076 13.9877 26.5676 13.2477 26.0476 12.3577C25.5276 11.4577 25.3476 10.2677 24.6176 9.53768C23.8876 8.80768 22.7076 8.62768 21.7976 8.10768C20.9076 7.58768 20.1676 6.65768 19.1476 6.37768C18.1676 6.11768 17.0576 6.54768 15.9976 6.54768C14.9276 6.54768 13.8276 6.10768 12.8376 6.37768C11.8176 6.64768 11.0776 7.58768 10.1876 8.10768C9.28764 8.62768 8.09764 8.80768 7.36764 9.53768C6.63764 10.2677 6.45764 11.4477 5.93764 12.3577C5.41764 13.2477 4.48764 13.9877 4.20764 15.0077C3.94764 15.9877 4.37764 17.0977 4.37764 18.1677C4.37764 19.2377 3.93764 20.3377 4.20764 21.3277C4.47764 22.3477 5.41764 23.0877 5.93764 23.9777C6.45764 24.8777 6.63764 26.0677 7.36764 26.7977C8.09764 27.5277 9.27764 27.7077 10.1876 28.2277C11.0776 28.7477 11.8176 29.6777 12.8376 29.9577C13.8176 30.2177 14.9276 29.7877 15.9976 29.7877C17.0676 29.7877 18.1676 30.2277 19.1576 29.9577C20.1776 29.6877 20.9176 28.7477 21.8076 28.2277C22.7076 27.7077 23.8976 27.5277 24.6276 26.7977C25.3576 26.0677 25.5376 24.8877 26.0576 23.9777C26.5776 23.0877 27.5076 22.3477 27.7876 21.3277C28.0376 20.3377 27.6076 19.2277 27.6076 18.1677Z" fill="url(#paint0_linear_18_29687)"/>
<path d="M27.7276 13.9976C27.7276 12.9176 28.1676 11.7976 27.8976 10.8076C27.6276 9.77765 26.6776 9.02765 26.1576 8.12765C25.6276 7.21765 25.4476 6.01765 24.7076 5.27765C23.9676 4.53765 22.7676 4.35765 21.8576 3.82765C20.9576 3.30765 20.2076 2.35765 19.1776 2.08765C18.1876 1.81765 17.0676 2.25765 15.9976 2.25765C14.9176 2.25765 13.7976 1.81765 12.8076 2.08765C11.7776 2.35765 11.0276 3.30765 10.1276 3.82765C9.20765 4.35765 8.01765 4.53765 7.27765 5.27765C6.53765 6.01765 6.35765 7.20765 5.82765 8.12765C5.30765 9.02765 4.35765 9.77765 4.08765 10.7976C3.81765 11.7976 4.25765 12.9176 4.25765 13.9976C4.25765 15.0776 3.81765 16.1976 4.08765 17.1876C4.35765 18.2176 5.30765 18.9676 5.82765 19.8676C6.35765 20.7776 6.53765 21.9776 7.27765 22.7176C8.01765 23.4576 9.21765 23.6376 10.1276 24.1676C11.0276 24.6876 11.7776 25.6376 12.8076 25.9076C13.7976 26.1776 14.9176 25.7376 15.9976 25.7376C17.0776 25.7376 18.1976 26.1776 19.1876 25.9076C20.2176 25.6376 20.9676 24.6876 21.8676 24.1676C22.7776 23.6376 23.9776 23.4576 24.7176 22.7176C25.4576 21.9776 25.6376 20.7776 26.1676 19.8676C26.6876 18.9676 27.6376 18.2176 27.9076 17.1876C28.1676 16.1876 27.7276 15.0676 27.7276 13.9976Z" fill="url(#paint1_linear_18_29687)"/>
<path d="M27.7276 13.9976C27.7276 12.9176 28.1676 11.7976 27.8976 10.8076C27.6276 9.77765 26.6776 9.02765 26.1576 8.12765C25.6276 7.21765 25.4476 6.01765 24.7076 5.27765C23.9676 4.53765 22.7676 4.35765 21.8576 3.82765C20.9576 3.30765 20.2076 2.35765 19.1776 2.08765C18.1876 1.81765 17.0676 2.25765 15.9976 2.25765C14.9176 2.25765 13.7976 1.81765 12.8076 2.08765C11.7776 2.35765 11.0276 3.30765 10.1276 3.82765C9.20765 4.35765 8.01765 4.53765 7.27765 5.27765C6.53765 6.01765 6.35765 7.20765 5.82765 8.12765C5.30765 9.02765 4.35765 9.77765 4.08765 10.7976C3.81765 11.7976 4.25765 12.9176 4.25765 13.9976C4.25765 15.0776 3.81765 16.1976 4.08765 17.1876C4.35765 18.2176 5.30765 18.9676 5.82765 19.8676C6.35765 20.7776 6.53765 21.9776 7.27765 22.7176C8.01765 23.4576 9.21765 23.6376 10.1276 24.1676C11.0276 24.6876 11.7776 25.6376 12.8076 25.9076C13.7976 26.1776 14.9176 25.7376 15.9976 25.7376C17.0776 25.7376 18.1976 26.1776 19.1876 25.9076C20.2176 25.6376 20.9676 24.6876 21.8676 24.1676C22.7776 23.6376 23.9776 23.4576 24.7176 22.7176C25.4576 21.9776 25.6376 20.7776 26.1676 19.8676C26.6876 18.9676 27.6376 18.2176 27.9076 17.1876C28.1676 16.1876 27.7276 15.0676 27.7276 13.9976Z" fill="url(#paint2_radial_18_29687)"/>
<path d="M27.7276 13.9976C27.7276 12.9176 28.1676 11.7976 27.8976 10.8076C27.6276 9.77765 26.6776 9.02765 26.1576 8.12765C25.6276 7.21765 25.4476 6.01765 24.7076 5.27765C23.9676 4.53765 22.7676 4.35765 21.8576 3.82765C20.9576 3.30765 20.2076 2.35765 19.1776 2.08765C18.1876 1.81765 17.0676 2.25765 15.9976 2.25765C14.9176 2.25765 13.7976 1.81765 12.8076 2.08765C11.7776 2.35765 11.0276 3.30765 10.1276 3.82765C9.20765 4.35765 8.01765 4.53765 7.27765 5.27765C6.53765 6.01765 6.35765 7.20765 5.82765 8.12765C5.30765 9.02765 4.35765 9.77765 4.08765 10.7976C3.81765 11.7976 4.25765 12.9176 4.25765 13.9976C4.25765 15.0776 3.81765 16.1976 4.08765 17.1876C4.35765 18.2176 5.30765 18.9676 5.82765 19.8676C6.35765 20.7776 6.53765 21.9776 7.27765 22.7176C8.01765 23.4576 9.21765 23.6376 10.1276 24.1676C11.0276 24.6876 11.7776 25.6376 12.8076 25.9076C13.7976 26.1776 14.9176 25.7376 15.9976 25.7376C17.0776 25.7376 18.1976 26.1776 19.1876 25.9076C20.2176 25.6376 20.9676 24.6876 21.8676 24.1676C22.7776 23.6376 23.9776 23.4576 24.7176 22.7176C25.4576 21.9776 25.6376 20.7776 26.1676 19.8676C26.6876 18.9676 27.6376 18.2176 27.9076 17.1876C28.1676 16.1876 27.7276 15.0676 27.7276 13.9976Z" fill="url(#paint3_radial_18_29687)"/>
<path d="M27.7276 13.9976C27.7276 12.9176 28.1676 11.7976 27.8976 10.8076C27.6276 9.77765 26.6776 9.02765 26.1576 8.12765C25.6276 7.21765 25.4476 6.01765 24.7076 5.27765C23.9676 4.53765 22.7676 4.35765 21.8576 3.82765C20.9576 3.30765 20.2076 2.35765 19.1776 2.08765C18.1876 1.81765 17.0676 2.25765 15.9976 2.25765C14.9176 2.25765 13.7976 1.81765 12.8076 2.08765C11.7776 2.35765 11.0276 3.30765 10.1276 3.82765C9.20765 4.35765 8.01765 4.53765 7.27765 5.27765C6.53765 6.01765 6.35765 7.20765 5.82765 8.12765C5.30765 9.02765 4.35765 9.77765 4.08765 10.7976C3.81765 11.7976 4.25765 12.9176 4.25765 13.9976C4.25765 15.0776 3.81765 16.1976 4.08765 17.1876C4.35765 18.2176 5.30765 18.9676 5.82765 19.8676C6.35765 20.7776 6.53765 21.9776 7.27765 22.7176C8.01765 23.4576 9.21765 23.6376 10.1276 24.1676C11.0276 24.6876 11.7776 25.6376 12.8076 25.9076C13.7976 26.1776 14.9176 25.7376 15.9976 25.7376C17.0776 25.7376 18.1976 26.1776 19.1876 25.9076C20.2176 25.6376 20.9676 24.6876 21.8676 24.1676C22.7776 23.6376 23.9776 23.4576 24.7176 22.7176C25.4576 21.9776 25.6376 20.7776 26.1676 19.8676C26.6876 18.9676 27.6376 18.2176 27.9076 17.1876C28.1676 16.1876 27.7276 15.0676 27.7276 13.9976Z" fill="url(#paint4_radial_18_29687)"/>
<g filter="url(#filter0_f_18_29687)">
<path d="M27.1874 13.7762C27.1874 12.7659 27.6071 11.7181 27.3495 10.792C27.092 9.8284 26.1857 9.12678 25.6897 8.28483C25.1841 7.43352 25.0123 6.31092 24.3064 5.61865C23.6005 4.92639 22.4557 4.758 21.5876 4.26218C20.7291 3.77572 20.0136 2.887 19.031 2.63441C18.0866 2.38183 16.9582 2.63442 15.9375 2.63442C14.9072 2.63442 13.8507 2.15367 12.9062 2.40625C11.9237 2.65883 11.0773 3.60728 10.2187 4.09374C9.34107 4.58956 8.38491 4.68272 7.67899 5.37499C6.97306 6.06726 6.63055 7.38933 6.12495 8.24999C5.6289 9.09194 4.72629 9.85828 4.46872 10.8125C4.21115 11.748 4.6359 12.8334 4.6359 13.8437C4.6359 14.8541 4.3783 15.8343 4.63587 16.7604C4.89344 17.724 5.7997 18.4256 6.29575 19.2676C6.80135 20.1189 6.97306 21.2415 7.67899 21.9338C8.38491 22.626 9.52966 22.7944 10.3978 23.2902C11.2563 23.7767 11.9718 24.6654 12.9544 24.918C13.8988 25.1706 14.9672 24.759 15.9975 24.759C17.0277 24.759 18.0962 25.1706 19.0406 24.918C20.0232 24.6654 20.7386 23.7767 21.5972 23.2902C22.4653 22.7944 23.61 22.626 24.316 21.9338C25.0219 21.2415 25.1936 20.1189 25.6992 19.2676C26.1952 18.4256 27.1015 17.724 27.3591 16.7604C27.6071 15.8249 27.1874 14.7772 27.1874 13.7762Z" fill="url(#paint5_linear_18_29687)"/>
</g>
<path d="M24.9776 14.8377H22.5676V13.1477H24.9776C25.2476 13.1477 25.4676 12.9277 25.4676 12.6577C25.4676 8.04766 21.7176 4.28766 17.0976 4.28766H14.8676C10.2576 4.28766 6.49762 8.03766 6.49762 12.6577C6.49762 12.9277 6.71762 13.1477 6.98762 13.1477H9.39762V14.8377H7.00762C6.73762 14.8377 6.51762 15.0577 6.51762 15.3277C6.51762 19.9377 10.2676 23.6977 14.8876 23.6977H17.1176C21.7276 23.6977 25.4876 19.9477 25.4876 15.3277C25.4776 15.0577 25.2576 14.8377 24.9776 14.8377ZM14.8776 5.27766H17.1076C21.0076 5.27766 24.2176 8.32766 24.4676 12.1677H17.5976V7.76766C18.8576 7.89766 20.0176 8.50766 20.8376 9.45766H19.0976C18.8276 9.45766 18.6076 9.67766 18.6076 9.94766C18.6076 10.2177 18.8276 10.4377 19.0976 10.4377H21.7876C21.9676 10.4377 22.1276 10.3477 22.2176 10.1877C22.3076 10.0377 22.3076 9.84766 22.2176 9.69766C21.1676 7.87766 19.2076 6.74766 17.0976 6.74766C16.8276 6.74766 16.6076 6.96766 16.6076 7.23766V8.70766H15.3676V7.23766C15.3676 6.96766 15.1476 6.74766 14.8776 6.74766C12.7776 6.74766 10.8176 7.87766 9.75762 9.69766C9.66762 9.84766 9.66762 10.0377 9.75762 10.1877C9.84762 10.3377 10.0076 10.4377 10.1876 10.4377H12.8776C13.1476 10.4377 13.3676 10.2177 13.3676 9.94766C13.3676 9.67766 13.1576 9.44766 12.8876 9.44766H11.1476C11.9676 8.49766 13.1276 7.88766 14.3876 7.75766V12.1577H7.51762C7.77762 8.31766 10.9776 5.27766 14.8776 5.27766ZM10.3976 13.1477H14.8776C15.1476 13.1477 15.3676 12.9277 15.3676 12.6577V9.69766H16.6076V12.6477C16.6076 12.9177 16.8276 13.1377 17.0976 13.1377H21.5776V14.8277H17.0976C16.8276 14.8277 16.6076 15.0477 16.6076 15.3177V18.2677H15.3676V15.3177C15.3676 15.0477 15.1476 14.8277 14.8776 14.8277H10.3976V13.1477ZM17.1076 22.7177H14.8776C10.9776 22.7177 7.76762 19.6677 7.51762 15.8277H14.3876V20.2277C13.1276 20.0977 11.9676 19.4877 11.1476 18.5377H12.8876C13.1576 18.5377 13.3776 18.3177 13.3776 18.0477C13.3776 17.7777 13.1576 17.5577 12.8876 17.5577H10.1876C10.0076 17.5577 9.84762 17.6477 9.75762 17.8077C9.66762 17.9577 9.66762 18.1477 9.75762 18.2977C10.8076 20.1177 12.7676 21.2477 14.8776 21.2477C15.1476 21.2477 15.3676 21.0277 15.3676 20.7577V19.2877H16.6076V20.7577C16.6076 21.0277 16.8276 21.2477 17.0976 21.2477C19.1976 21.2477 21.1576 20.1177 22.2176 18.2977C22.3076 18.1477 22.3076 17.9577 22.2176 17.8077C22.1276 17.6577 21.9676 17.5577 21.7876 17.5577H19.0976C18.8276 17.5577 18.6076 17.7777 18.6076 18.0477C18.6076 18.3177 18.8276 18.5377 19.0976 18.5377H20.8376C20.0176 19.4877 18.8576 20.0977 17.5976 20.2277V15.8277H24.4676C24.2076 19.6677 21.0076 22.7177 17.1076 22.7177Z" fill="url(#paint6_radial_18_29687)"/>
<defs>
<filter id="filter0_f_18_29687" x="3.8858" y="1.83289" width="24.0517" height="23.6671" filterUnits="userSpaceOnUse" color-interpolation-filters="sRGB">
<feFlood flood-opacity="0" result="BackgroundImageFix"/>
<feBlend mode="normal" in="SourceGraphic" in2="BackgroundImageFix" result="shape"/>
<feGaussianBlur stdDeviation="0.25" result="effect1_foregroundBlur_18_29687"/>
</filter>
<linearGradient id="paint0_linear_18_29687" x1="4.12" y1="19.75" x2="27.8658" y2="19.75" gradientUnits="userSpaceOnUse">
<stop stop-color="#523C38"/>
<stop offset="0.0712761" stop-color="#523A37"/>
<stop offset="0.194982" stop-color="#643649"/>
<stop offset="0.337113" stop-color="#5B3543"/>
<stop offset="0.437131" stop-color="#763E53"/>
<stop offset="0.5003" stop-color="#743C52"/>
<stop offset="0.566101" stop-color="#6D3850"/>
<stop offset="0.655591" stop-color="#85484E"/>
<stop offset="0.816146" stop-color="#824450"/>
<stop offset="0.897739" stop-color="#93584B"/>
<stop offset="1" stop-color="#9C5D4D"/>
</linearGradient>
<linearGradient id="paint1_linear_18_29687" x1="22.875" y1="5.625" x2="8.25" y2="22.375" gradientUnits="userSpaceOnUse">
<stop stop-color="#EDC068"/>
<stop offset="0.494581" stop-color="#EEAE5F"/>
<stop offset="1" stop-color="#EF9E58"/>
</linearGradient>
<radialGradient id="paint2_radial_18_29687" cx="0" cy="0" r="1" gradientUnits="userSpaceOnUse" gradientTransform="translate(4.875 11.6875) rotate(20.3862) scale(9.86808 28.6814)">
<stop stop-color="#866038"/>
<stop offset="1" stop-color="#AA7A37" stop-opacity="0"/>
</radialGradient>
<radialGradient id="paint3_radial_18_29687" cx="0" cy="0" r="1" gradientUnits="userSpaceOnUse" gradientTransform="translate(24.8125 8.3125) rotate(86.8812) scale(19.5289 7.92758)">
<stop offset="0.269408" stop-color="#FFDF83"/>
<stop offset="1" stop-color="#FFDC87" stop-opacity="0"/>
</radialGradient>
<radialGradient id="paint4_radial_18_29687" cx="0" cy="0" r="1" gradientUnits="userSpaceOnUse" gradientTransform="translate(15.5625 22) rotate(90) scale(8.4375 16.4496)">
<stop offset="0.266667" stop-color="#BF6556"/>
<stop offset="1" stop-color="#C16556" stop-opacity="0"/>
</radialGradient>
<linearGradient id="paint5_linear_18_29687" x1="22.5582" y1="5.94361" x2="8.91508" y2="21.8773" gradientUnits="userSpaceOnUse">
<stop stop-color="#EDC068"/>
<stop offset="0.494581" stop-color="#EEAE5F"/>
<stop offset="1" stop-color="#EF9E58"/>
</linearGradient>
<radialGradient id="paint6_radial_18_29687" cx="0" cy="0" r="1" gradientUnits="userSpaceOnUse" gradientTransform="translate(15.9926 13.9927) rotate(90) scale(9.705 9.495)">
<stop stop-color="#FFD08A"/>
<stop offset="1" stop-color="#FFDDA8"/>
</radialGradient>
</defs>
</svg>

<svg width="32" height="32" fill="none" xmlns="http://www.w3.org/2000/svg"><path d="M27.608 18.168c0-1.07.44-2.17.17-3.16-.27-1.02-1.21-1.76-1.73-2.65-.52-.9-.7-2.09-1.43-2.82s-1.91-.91-2.82-1.43c-.89-.52-1.63-1.45-2.65-1.73-.98-.26-2.09.17-3.15.17-1.07 0-2.17-.44-3.16-.17-1.02.27-1.76 1.21-2.65 1.73-.9.52-2.09.7-2.82 1.43s-.91 1.91-1.43 2.82c-.52.89-1.45 1.63-1.73 2.65-.26.98.17 2.09.17 3.16 0 1.07-.44 2.17-.17 3.16.27 1.02 1.21 1.76 1.73 2.65.52.9.7 2.09 1.43 2.82s1.91.91 2.82 1.43c.89.52 1.63 1.45 2.65 1.73.98.26 2.09-.17 3.16-.17 1.07 0 2.17.44 3.16.17 1.02-.27 1.76-1.21 2.65-1.73.9-.52 2.09-.7 2.82-1.43s.91-1.91 1.43-2.82c.52-.89 1.45-1.63 1.73-2.65.25-.99-.18-2.1-.18-3.16Z" fill="url(#a)"/><path d="M27.728 13.998c0-1.08.44-2.2.17-3.19-.27-1.03-1.22-1.78-1.74-2.68-.53-.91-.71-2.11-1.45-2.85-.74-.74-1.94-.92-2.85-1.45-.9-.52-1.65-1.47-2.68-1.74-.99-.27-2.11.17-3.18.17-1.08 0-2.2-.44-3.19-.17-1.03.27-1.78 1.22-2.68 1.74-.92.53-2.11.71-2.85 1.45-.74.74-.92 1.93-1.45 2.85-.52.9-1.47 1.65-1.74 2.67-.27 1 .17 2.12.17 3.2s-.44 2.2-.17 3.19c.27 1.03 1.22 1.78 1.74 2.68.53.91.71 2.11 1.45 2.85.74.74 1.94.92 2.85 1.45.9.52 1.65 1.47 2.68 1.74.99.27 2.11-.17 3.19-.17s2.2.44 3.19.17c1.03-.27 1.78-1.22 2.68-1.74.91-.53 2.11-.71 2.85-1.45.74-.74.92-1.94 1.45-2.85.52-.9 1.47-1.65 1.74-2.68.26-1-.18-2.12-.18-3.19Z" fill="url(#b)"/><path d="M27.728 13.998c0-1.08.44-2.2.17-3.19-.27-1.03-1.22-1.78-1.74-2.68-.53-.91-.71-2.11-1.45-2.85-.74-.74-1.94-.92-2.85-1.45-.9-.52-1.65-1.47-2.68-1.74-.99-.27-2.11.17-3.18.17-1.08 0-2.2-.44-3.19-.17-1.03.27-1.78 1.22-2.68 1.74-.92.53-2.11.71-2.85 1.45-.74.74-.92 1.93-1.45 2.85-.52.9-1.47 1.65-1.74 2.67-.27 1 .17 2.12.17 3.2s-.44 2.2-.17 3.19c.27 1.03 1.22 1.78 1.74 2.68.53.91.71 2.11 1.45 2.85.74.74 1.94.92 2.85 1.45.9.52 1.65 1.47 2.68 1.74.99.27 2.11-.17 3.19-.17s2.2.44 3.19.17c1.03-.27 1.78-1.22 2.68-1.74.91-.53 2.11-.71 2.85-1.45.74-.74.92-1.94 1.45-2.85.52-.9 1.47-1.65 1.74-2.68.26-1-.18-2.12-.18-3.19Z" fill="url(#c)"/><path d="M27.728 13.998c0-1.08.44-2.2.17-3.19-.27-1.03-1.22-1.78-1.74-2.68-.53-.91-.71-2.11-1.45-2.85-.74-.74-1.94-.92-2.85-1.45-.9-.52-1.65-1.47-2.68-1.74-.99-.27-2.11.17-3.18.17-1.08 0-2.2-.44-3.19-.17-1.03.27-1.78 1.22-2.68 1.74-.92.53-2.11.71-2.85 1.45-.74.74-.92 1.93-1.45 2.85-.52.9-1.47 1.65-1.74 2.67-.27 1 .17 2.12.17 3.2s-.44 2.2-.17 3.19c.27 1.03 1.22 1.78 1.74 2.68.53.91.71 2.11 1.45 2.85.74.74 1.94.92 2.85 1.45.9.52 1.65 1.47 2.68 1.74.99.27 2.11-.17 3.19-.17s2.2.44 3.19.17c1.03-.27 1.78-1.22 2.68-1.74.91-.53 2.11-.71 2.85-1.45.74-.74.92-1.94 1.45-2.85.52-.9 1.47-1.65 1.74-2.68.26-1-.18-2.12-.18-3.19Z" fill="url(#d)"/><path d="M27.728 13.998c0-1.08.44-2.2.17-3.19-.27-1.03-1.22-1.78-1.74-2.68-.53-.91-.71-2.11-1.45-2.85-.74-.74-1.94-.92-2.85-1.45-.9-.52-1.65-1.47-2.68-1.74-.99-.27-2.11.17-3.18.17-1.08 0-2.2-.44-3.19-.17-1.03.27-1.78 1.22-2.68 1.74-.92.53-2.11.71-2.85 1.45-.74.74-.92 1.93-1.45 2.85-.52.9-1.47 1.65-1.74 2.67-.27 1 .17 2.12.17 3.2s-.44 2.2-.17 3.19c.27 1.03 1.22 1.78 1.74 2.68.53.91.71 2.11 1.45 2.85.74.74 1.94.92 2.85 1.45.9.52 1.65 1.47 2.68 1.74.99.27 2.11-.17 3.19-.17s2.2.44 3.19.17c1.03-.27 1.78-1.22 2.68-1.74.91-.53 2.11-.71 2.85-1.45.74-.74.92-1.94 1.45-2.85.52-.9 1.47-1.65 1.74-2.68.26-1-.18-2.12-.18-3.19Z" fill="url(#e)"/><g filter="url(#f)"><path d="M27.187 13.776c0-1.01.42-2.058.162-2.984-.257-.964-1.163-1.665-1.66-2.507-.505-.851-.677-1.974-1.383-2.666-.706-.693-1.85-.861-2.718-1.357-.859-.486-1.574-1.375-2.557-1.628-.944-.252-2.073 0-3.093 0-1.03 0-2.087-.48-3.032-.228-.982.253-1.829 1.201-2.687 1.688-.878.496-1.834.589-2.54 1.281S6.631 7.389 6.125 8.25c-.496.842-1.399 1.608-1.656 2.563-.258.935.167 2.02.167 3.03 0 1.011-.258 1.991 0 2.917.257.964 1.164 1.666 1.66 2.508.505.85.677 1.973 1.383 2.666.706.692 1.85.86 2.719 1.356.858.487 1.574 1.375 2.556 1.628.945.253 2.013-.159 3.043-.159 1.03 0 2.1.412 3.044.159.982-.253 1.698-1.141 2.556-1.628.868-.496 2.013-.664 2.719-1.356.706-.693.878-1.815 1.383-2.666.496-.842 1.402-1.544 1.66-2.508.248-.935-.172-1.983-.172-2.984Z" fill="url(#g)"/></g><path d="M24.978 14.838h-2.41v-1.69h2.41c.27 0 .49-.22.49-.49 0-4.61-3.75-8.37-8.37-8.37h-2.23c-4.61 0-8.37 3.75-8.37 8.37 0 .27.22.49.49.49h2.41v1.69h-2.39a.49.49 0 0 0-.49.49c0 4.61 3.75 8.37 8.37 8.37h2.23c4.61 0 8.37-3.75 8.37-8.37a.508.508 0 0 0-.51-.49Zm-10.1-9.56h2.23c3.9 0 7.11 3.05 7.36 6.89h-6.87v-4.4c1.26.13 2.42.74 3.24 1.69h-1.74a.49.49 0 0 0 0 .98h2.69c.18 0 .34-.09.43-.25.09-.15.09-.34 0-.49a5.921 5.921 0 0 0-5.12-2.95.49.49 0 0 0-.49.49v1.47h-1.24v-1.47a.49.49 0 0 0-.49-.49c-2.1 0-4.06 1.13-5.12 2.95-.09.15-.09.34 0 .49.09.15.25.25.43.25h2.69c.27 0 .49-.22.49-.49s-.21-.5-.48-.5h-1.74c.82-.95 1.98-1.56 3.24-1.69v4.4h-6.87c.26-3.84 3.46-6.88 7.36-6.88Zm-4.48 7.87h4.48c.27 0 .49-.22.49-.49v-2.96h1.24v2.95c0 .27.22.49.49.49h4.48v1.69h-4.48a.49.49 0 0 0-.49.49v2.95h-1.24v-2.95a.49.49 0 0 0-.49-.49h-4.48v-1.68Zm6.71 9.57h-2.23c-3.9 0-7.11-3.05-7.36-6.89h6.87v4.4a4.958 4.958 0 0 1-3.24-1.69h1.74a.49.49 0 0 0 0-.98h-2.7c-.18 0-.34.09-.43.25-.09.15-.09.34 0 .49a5.921 5.921 0 0 0 5.12 2.95c.27 0 .49-.22.49-.49v-1.47h1.24v1.47c0 .27.22.49.49.49 2.1 0 4.06-1.13 5.12-2.95.09-.15.09-.34 0-.49a.504.504 0 0 0-.43-.25h-2.69a.49.49 0 0 0 0 .98h1.74c-.82.95-1.98 1.56-3.24 1.69v-4.4h6.87c-.26 3.84-3.46 6.89-7.36 6.89Z" fill="url(#h)"/><defs><radialGradient id="c" cx="0" cy="0" r="1" gradientUnits="userSpaceOnUse" gradientTransform="rotate(20.386 -30.063 19.4) scale(9.86808 28.6814)"><stop stop-color="#866038"/><stop offset="1" stop-color="#AA7A37" stop-opacity="0"/></radialGradient><radialGradient id="d" cx="0" cy="0" r="1" gradientUnits="userSpaceOnUse" gradientTransform="rotate(86.881 8.017 17.257) scale(19.5289 7.92758)"><stop offset=".269" stop-color="#FFDF83"/><stop offset="1" stop-color="#FFDC87" stop-opacity="0"/></radialGradient><radialGradient id="e" cx="0" cy="0" r="1" gradientUnits="userSpaceOnUse" gradientTransform="matrix(0 8.4375 -16.4496 0 15.563 22)"><stop offset=".267" stop-color="#BF6556"/><stop offset="1" stop-color="#C16556" stop-opacity="0"/></radialGradient><radialGradient id="h" cx="0" cy="0" r="1" gradientUnits="userSpaceOnUse" gradientTransform="matrix(0 9.705 -9.495 0 15.993 13.993)"><stop stop-color="#FFD08A"/><stop offset="1" stop-color="#FFDDA8"/></radialGradient><linearGradient id="a" x1="4.12" y1="19.75" x2="27.866" y2="19.75" gradientUnits="userSpaceOnUse"><stop stop-color="#523C38"/><stop offset=".071" stop-color="#523A37"/><stop offset=".195" stop-color="#643649"/><stop offset=".337" stop-color="#5B3543"/><stop offset=".437" stop-color="#763E53"/><stop offset=".5" stop-color="#743C52"/><stop offset=".566" stop-color="#6D3850"/><stop offset=".656" stop-color="#85484E"/><stop offset=".816" stop-color="#824450"/><stop offset=".898" stop-color="#93584B"/><stop offset="1" stop-color="#9C5D4D"/></linearGradient><linearGradient id="b" x1="22.875" y1="5.625" x2="8.25" y2="22.375" gradientUnits="userSpaceOnUse"><stop stop-color="#EDC068"/><stop offset=".495" stop-color="#EEAE5F"/><stop offset="1" stop-color="#EF9E58"/></linearGradient><linearGradient id="g" x1="22.558" y1="5.944" x2="8.915" y2="21.877" gradientUnits="userSpaceOnUse"><stop stop-color="#EDC068"/><stop offset=".495" stop-color="#EEAE5F"/><stop offset="1" stop-color="#EF9E58"/></linearGradient><filter id="f" x="3.886" y="1.833" width="24.052" height="23.667" filterUnits="userSpaceOnUse" color-interpolation-filters="sRGB"><feFlood flood-opacity="0" result="BackgroundImageFix"/><feBlend in="SourceGraphic" in2="BackgroundImageFix" result="shape"/><feGaussianBlur stdDeviation=".25" result="effect1_foregroundBlur_18_29687"/></filter></defs></svg>
